storage/app/icons/phosphoricons/thin/note-thin.svg

<svg xmlns="http://www.w3.org/2000/svg" fill="currentColor" viewBox="0 0 256 256"><path d="M92 96a4 4 0 0 1 4-4h64a4 4 0 0 1 0 8H96a4 4 0 0 1-4-4m4 36h64a4 4 0 0 0 0-8H96a4 4 0 0 0 0 8m32 24H96a4 4 0 0 0 0 8h32a4 4 0 0 0 0-8m92-108v108.69a11.9 11.9 0 0 1-3.52 8.48l-51.31 51.32a11.93 11.93 0 0 1-8.48 3.51H48a12 12 0 0 1-12-12V48a12 12 0 0 1 12-12h160a12 12 0 0 1 12 12M48 212h108v-52a4 4 0 0 1 4-4h52V48a4 4 0 0 0-4-4H48a4 4 0 0 0-4 4v160a4 4 0 0 0 4 4m158.35-48H164v42.35Z"/></svg>

<svg xmlns="http://www.w3.org/2000/svg" viewBox="0 0 256 256" fill="currentColor"><path d="M92,96a4,4,0,0,1,4-4h64a4,4,0,0,1,0,8H96A4,4,0,0,1,92,96Zm4,36h64a4,4,0,0,0,0-8H96a4,4,0,0,0,0,8Zm32,24H96a4,4,0,0,0,0,8h32a4,4,0,0,0,0-8ZM220,48V156.69a11.9,11.9,0,0,1-3.52,8.48l-51.31,51.32a11.93,11.93,0,0,1-8.48,3.51H48a12,12,0,0,1-12-12V48A12,12,0,0,1,48,36H208A12,12,0,0,1,220,48ZM48,212H156V160a4,4,0,0,1,4-4h52V48a4,4,0,0,0-4-4H48a4,4,0,0,0-4,4V208A4,4,0,0,0,48,212Zm158.35-48H164v42.35Z"/></svg>
